Simply white circles/scalable/actions/help-about.svg

<svg xmlns="http://www.w3.org/2000/svg" width="24" height="24">
  <path fill="#e6e6e6" d="M12 .23046875A11.770509 11.770509 0 0 0 .22851562 12 11.770509 11.770509 0 0 0 12 23.769531 11.770509 11.770509 0 0 0 23.771484 12 11.770509 11.770509 0 0 0 12 .23046875zm-.033203 1.75195315A10.119383 10.119383 0 0 1 22.085938 12.101562a10.119383 10.119383 0 0 1-4.173829 8.171876c.273344-.934862-.908173-5.792606-.722656-6.375.198241-.622225 4.473605-4.2547289 4.275391-4.8769536-.19815-.6222613-5.750612-1.0002119-6.269532-1.3847656-.5189-.384554-2.587095-5.6542969-3.228515-5.6542969zm0 0c-.641411 0-2.7095967 5.2697429-3.2285158 5.6542969-.518901.3845538-6.0713173.7625412-6.2695312 1.3847656-.198241.6222247 4.0771767 4.2547286 4.2753906 4.8769536.185817.583334-1.0011864 5.457205-.7226562 6.380859a10.119383 10.119383 0 0 1-4.1757813-8.177735A10.119383 10.119383 0 0 1 11.966797 1.9824219zm0 15.7871091c.599611 0 4.751971 2.639786 5.714844 2.669922a10.119383 10.119383 0 0 1-5.714844 1.78125 10.119383 10.119383 0 0 1-5.7363282-1.78125c.9175279.013149 5.1317912-2.669922 5.7363282-2.669922z"/>
</svg>

<?xml version="1.0" encoding="UTF-8" standalone="no"?>
<svg
   xmlns:dc="http://purl.org/dc/elements/1.1/"
   xmlns:cc="http://creativecommons.org/ns#"
   xmlns:rdf="http://www.w3.org/1999/02/22-rdf-syntax-ns#"
   xmlns:svg="http://www.w3.org/2000/svg"
   xmlns="http://www.w3.org/2000/svg"
   xmlns:sodipodi="http://sodipodi.sourceforge.net/DTD/sodipodi-0.dtd"
   xmlns:inkscape="http://www.inkscape.org/namespaces/inkscape"
   viewBox="0 0 24 24"
   version="1.1"
   id="svg4"
   sodipodi:docname="help-about.svg"
   inkscape:version="0.92.3 (2405546, 2018-03-11)"
   width="24"
   height="24"
   style="fill:#000000">
  <metadata
     id="metadata10">
    <rdf:RDF>
      <cc:Work
         rdf:about="">
        <dc:format>image/svg+xml</dc:format>
        <dc:type
           rdf:resource="http://purl.org/dc/dcmitype/StillImage" />
        <dc:title></dc:title>
      </cc:Work>
    </rdf:RDF>
  </metadata>
  <defs
     id="defs8" />
  <sodipodi:namedview
     pagecolor="#ffffff"
     bordercolor="#666666"
     borderopacity="1"
     objecttolerance="10"
     gridtolerance="10"
     guidetolerance="10"
     inkscape:pageopacity="0"
     inkscape:pageshadow="2"
     inkscape:window-width="1366"
     inkscape:window-height="719"
     id="namedview6"
     showgrid="false"
     inkscape:zoom="7.9254885"
     inkscape:cx="-14.181351"
     inkscape:cy="11.495299"
     inkscape:window-x="0"
     inkscape:window-y="25"
     inkscape:window-maximized="1"
     inkscape:current-layer="svg4"
     showguides="true"
     inkscape:guide-bbox="true" />
  <path
     style="fill:#e6e6e6;fill-opacity:1;stroke-width:0.26004881"
     d="M 12 0.23046875 A 11.770509 11.770509 0 0 0 0.22851562 12 A 11.770509 11.770509 0 0 0 12 23.769531 A 11.770509 11.770509 0 0 0 23.771484 12 A 11.770509 11.770509 0 0 0 12 0.23046875 z M 11.966797 1.9824219 A 10.119383 10.119383 0 0 1 22.085938 12.101562 A 10.119383 10.119383 0 0 1 17.912109 20.273438 C 18.185453 19.338576 17.003936 14.480832 17.189453 13.898438 C 17.387694 13.276213 21.663058 9.6437091 21.464844 9.0214844 C 21.266694 8.3992231 15.714232 8.0212725 15.195312 7.6367188 C 14.676412 7.2521648 12.608217 1.9824219 11.966797 1.9824219 z M 11.966797 1.9824219 C 11.325386 1.9824219 9.2572003 7.2521648 8.7382812 7.6367188 C 8.2193802 8.0212726 2.6669639 8.39926 2.46875 9.0214844 C 2.270509 9.6437091 6.5459267 13.276213 6.7441406 13.898438 C 6.9299576 14.481772 5.7429542 19.355643 6.0214844 20.279297 A 10.119383 10.119383 0 0 1 1.8457031 12.101562 A 10.119383 10.119383 0 0 1 11.966797 1.9824219 z M 11.966797 17.769531 C 12.566408 17.769531 16.718768 20.409317 17.681641 20.439453 A 10.119383 10.119383 0 0 1 11.966797 22.220703 A 10.119383 10.119383 0 0 1 6.2304688 20.439453 C 7.1479967 20.452602 11.36226 17.769531 11.966797 17.769531 z "
     id="path822" />
</svg>
